X:537
T:Braes of Mar, The
D:The Driven Bow, Alasdair Fraser
Z:Nigel Gatherer
M:4/4
L:1/8
K:D
F<AA>B d>ef>e | d<BB>A B<dB>A | F<AA>B d>ef>d | e<gf<a e2 d2 :|
f<aa>g f>da>f | g<bb>a g>eb>g | f<aa>g f>da>f | g<bf<a e2 d2 :|
e2 e>f g>fe>d | B2 B>A B<dB>A | F<AA>B d>ef>d | e<gf<a e2 d2 :|
F<AA>F D>FA>F | G<BB>G D>GB>G | F<AA>F D>FA>F | G<BF<A E2 D>E |
F<AA>F D>FA>F | E2 E>F G>FE>D | F<AA>B d>ef>g | a>ba<f e2 d2 ||
<end>
<start>
